front/public/static/landing/logos/gray/qonto.svg

<svg fill="none" height="263" viewBox="0 0 600 263" width="600" xmlns="http://www.w3.org/2000/svg" xmlns:xlink="http://www.w3.org/1999/xlink"><mask id="a" height="261" maskUnits="userSpaceOnUse" width="520" x="40" y="1"><path d="m560.001 1.25253h-520.001v260.49547h520.001z" fill="#fff"/></mask><mask id="b" height="261" maskUnits="userSpaceOnUse" width="520" x="40" y="1"><path d="m560.001 1.25253h-520.001v260.49547h520.001z" fill="#fff"/></mask><g mask="url(#a)"><g fill="#364153" mask="url(#b)"><path d="m314.135 168.763h-10.194v-50.532h10.194v5.533c3.773-5.2 9.002-6.667 13.106-6.667 11.12 0 21.314 9.601 21.314 22.067v29.599h-11.054v-29.066c0-7.267-5.56-12.466-11.981-12.466s-11.385 5.466-11.385 12.466z"/><path clip-rule="evenodd" d="m381.852 143.83c0-14.799 11.647-26.733 26.542-26.733 15.42 0 26.805 11.934 26.805 26.733 0 15.133-11.647 26.133-26.805 26.133-15.157 0-26.542-11.066-26.542-26.133zm11.385 0c0 8.667 6.682 15.667 15.157 15.667 9 0 15.754-7 15.754-15.667 0-9.333-7.016-15.999-15.754-15.999-8.141 0-15.157 6.733-15.157 15.999z" fill-rule="evenodd"/><path d="m380.063 158.03v10.733c-13.372 4.066-25.618-2-25.618-20v-43.532h10.789v13.066h13.637v10.133h-13.703v22.067c0 8.399 7.281 11.333 14.895 7.533z"/><g clip-rule="evenodd" fill-rule="evenodd"><path d="m244.766 143.83c0-14.799 11.649-26.733 26.543-26.733 15.423 0 26.808 11.934 26.808 26.733 0 15.133-11.65 26.133-26.808 26.133s-26.543-11.066-26.543-26.133zm11.385 0c0 8.667 6.686 15.667 15.158 15.667 8.737 0 15.754-7 15.754-15.667 0-9.333-7.017-15.999-15.754-15.999-8.472 0-15.158 6.733-15.158 15.999z"/><path d="m165.668 132.764c0-21.734 16.084-37.7335 37.068-37.7335 21.578 0 37.596 15.9995 37.663 38.0665 0 9.999-3.79 19.039-10.158 25.697 2.796.855 5.844 1.451 9.156 1.8l-1.192 10.849c-6.934-.779-13.044-2.456-18.359-5.071-5.071 2.471-10.86 3.858-17.11 3.858-21.049 0-37.068-16.533-37.068-37.466zm42.955 25.527c-1.873.398-3.841.605-5.887.605-14.562 0-25.352-10.999-25.352-26.132 0-15.667 10.79-27.267 25.352-27.267 14.893 0 25.682 11.6 25.682 27 0 8.686-3.433 15.973-9.098 20.675-5.256-4.19-9.071-10.157-11.7-18.116l-10.527 3.504c2.714 8.094 6.54 14.645 11.53 19.731z"/></g></g></g></svg>

<svg width="600" height="263" viewBox="0 0 600 263" fill="none" xmlns="http://www.w3.org/2000/svg">
<mask id="mask0_1904_3710" style="mask-type:luminance" maskUnits="userSpaceOnUse" x="40" y="1" width="520" height="261">
<path d="M560.001 1.25253H40V261.748H560.001V1.25253Z" fill="white"/>
</mask>
<g mask="url(#mask0_1904_3710)">
<mask id="mask1_1904_3710" style="mask-type:luminance" maskUnits="userSpaceOnUse" x="40" y="1" width="520" height="261">
<path d="M560.001 1.25253H40V261.748H560.001V1.25253Z" fill="white"/>
</mask>
<g mask="url(#mask1_1904_3710)">
<path d="M314.135 168.763H303.941V118.231H314.135V123.764C317.908 118.564 323.137 117.097 327.241 117.097C338.361 117.097 348.555 126.698 348.555 139.164V168.763H337.501V139.697C337.501 132.43 331.941 127.231 325.52 127.231C319.099 127.231 314.135 132.697 314.135 139.697V168.763Z" fill="#364153"/>
<path fill-rule="evenodd" clip-rule="evenodd" d="M381.852 143.83C381.852 129.031 393.499 117.097 408.394 117.097C423.814 117.097 435.199 129.031 435.199 143.83C435.199 158.963 423.552 169.963 408.394 169.963C393.237 169.963 381.852 158.897 381.852 143.83ZM393.237 143.83C393.237 152.497 399.919 159.497 408.394 159.497C417.394 159.497 424.148 152.497 424.148 143.83C424.148 134.497 417.132 127.831 408.394 127.831C400.253 127.831 393.237 134.564 393.237 143.83Z" fill="#364153"/>
<path d="M380.063 158.03V168.763C366.691 172.829 354.445 166.763 354.445 148.763V105.231H365.234V118.297H378.871V128.43H365.168V150.497C365.168 158.896 372.449 161.83 380.063 158.03Z" fill="#364153"/>
<path fill-rule="evenodd" clip-rule="evenodd" d="M244.766 143.83C244.766 129.031 256.415 117.097 271.309 117.097C286.732 117.097 298.117 129.031 298.117 143.83C298.117 158.963 286.467 169.963 271.309 169.963C256.151 169.963 244.766 158.897 244.766 143.83ZM256.151 143.83C256.151 152.497 262.837 159.497 271.309 159.497C280.046 159.497 287.063 152.497 287.063 143.83C287.063 134.497 280.046 127.831 271.309 127.831C262.837 127.831 256.151 134.564 256.151 143.83Z" fill="#364153"/>
<path fill-rule="evenodd" clip-rule="evenodd" d="M165.668 132.764C165.668 111.03 181.752 95.0305 202.736 95.0305C224.314 95.0305 240.332 111.03 240.399 133.097C240.399 143.096 236.609 152.136 230.241 158.794C233.037 159.649 236.085 160.245 239.397 160.594L238.205 171.443C231.271 170.664 225.161 168.987 219.846 166.372C214.775 168.843 208.986 170.23 202.736 170.23C181.687 170.23 165.668 153.697 165.668 132.764ZM208.623 158.291C206.75 158.689 204.782 158.896 202.736 158.896C188.174 158.896 177.384 147.897 177.384 132.764C177.384 117.097 188.174 105.497 202.736 105.497C217.629 105.497 228.418 117.097 228.418 132.497C228.418 141.183 224.985 148.47 219.32 153.172C214.064 148.982 210.249 143.015 207.62 135.056L197.093 138.56C199.807 146.654 203.633 153.205 208.623 158.291Z" fill="#364153"/>
</g>
</g>
</svg>
